build/redact/TxtColorOutline.svg

<svg xmlns="http://www.w3.org/2000/svg" fill="none" viewBox="0 0 24 24" focusable="false"><path d="M0 0H24V24H0z" transform="matrix(1 0 0 -1 0 24)"/><path fill="#74767B" fill-rule="evenodd" d="M12.0249 5.00015C11.7735 4.99479 11.5309 5.13652 11.4197 5.37979L6.05417 17.1104C5.90485 17.4369 6.04845 17.8226 6.37491 17.9719C6.70137 18.1212 7.08706 17.9776 7.23638 17.6511L9.06339 13.6567L14.967 13.6567L16.7941 17.6513C16.9434 17.9777 17.3291 18.1213 17.6556 17.972C17.982 17.8227 18.1256 17.437 17.9763 17.1105L12.6108 5.37991C12.5024 5.1429 12.2694 5.00227 12.0249 5.00015ZM12.0152 7.20315L9.65801 12.3567L14.3724 12.3567L12.0152 7.20315Z"/></svg>

<svg xmlns="http://www.w3.org/2000/svg" fill="none" viewBox="0 0 24 24" focusable="false"><path fill="#74767B" fill-rule="evenodd" d="M12.02 5a.66.66 0 0 0-.61.37L6.05 17.11c-.15.32-.01.71.32.86s.71 0 .86-.32l1.83-4h5.9l1.83 4c.15.32.53.47.86.32s.47-.54.32-.86L12.61 5.37a.66.66 0 0 0-.59-.37m-.01 2.2-2.36 5.15h4.72z"/></svg>
